X: 3
T: Brian Boru's March
R: jig
M: 6/8
L: 1/8
K: Amin
|: e | cBA Aed | cBA A2 d | BAG Gdc | BAG G2 e |
cBA Aed | cBA A2B | cde e2d | cAA A2 :|
|: B | cde efe | efe edc | Bcd ded | ded dcB |
cde efe | efe edc | e3 e2d | cAA A2 :|


Tune 271	Setting 271

